X:1
T:Nauray ie iamais
T:Jacotin
T:Source : Pemier livre contenant 31 chansons eslevées---Paris---P.Attaignant---1535. Editor : André Vierendeels (19/12/17). Notes : Original clefs : C1, C3, C4, F4 Original note values have been halved Editorial accidentals above the staff Dotted brackets indicate black notes
T:Nauray ie iamais
T:©
T:©
T:©
T:©
C:Jacotin
Z:©
%%score [ 1 2 3 4 ]
L:1/8
Q:1/4=124
M:2/2
K:F
V:1 treble nm="Soprano" snm="S"
V:2 treble nm="Alto" snm="A"
V:3 treble-8 nm="Tenor" snm="T"
V:4 bass nm="Bass" snm="B"
V:1
 z8 | A4 A2 A2 | F3 G A2 B2- | B2 A4 G2 | A8 | z2 A2 A2 G2 | B6 B2 | A2 A2 G2 c2- | cBAG F2 G2- | %9
w: |Nau- ray ie|ia- * * mais|_ re- con-|fort|de vous, bel-|le à|qui iay fi- an-||
 G2 F4 E2 | F8 | z2 A2 A2 A2 | F3 G A2 B2- | B2 A4 G2 | A8 | z2 A2 A2 G2 | B6 B2 | A2 A2 G2 c2- | %18
w: |ce,|de- si- rez|vous ma vi- *|* e ou|mort?|Vi- vray ie|tous- iours|en souf- fran- *|
 cBAG F2 G2- | GF F4 E2 | F8 | z2 A2 A2 A2 | F2 c2 B2 A2 | F3 G A2 B2- | B2 A4 G2 | A4 z2 B2 | %26
w: ||ce?|Mon cueur, si|vit en es- pe-|ran- * * *||ce, en|
 B2 A2 A2 G2 | G2 F2 G4 | z2 G2 G2 G2 | A6 A2 | F3 G AF B2- | BA A4 G2 | A8 | z2 A2 A2 A2 | %34
w: ac- com- plis- sant|m'en _ vueil,|ie ne scay|si cest|i- * gno- * ran-||ce,|mais ie n'y|
 G3 A B2 A2 | G2 A4 GF | E2 G4 F2- | F2 E2 F4- | F8 |] %39
w: tou- * * che|que _ _ _|_ _ de|_ _ loeil|_|
V:2
 z2 A,2 C2 C2 | C3 B, C2 DC | DE F4 B,2- | B,2 C2 D4 | E4 F4 | z2 D2 C2 C2 | B,A,B,C D2 B,2 | %7
w: Nau- ray ie|ia- * * * *|* * * mais|_ re- *|con- fort|de vous, bel-|le _ _ _ _ à|
 F2 F2 E4 | F3 E C2 _E2 | D2 B,2 C4 | A,2 C2 C2 C2 | C3 B, C2 DC | DE F4 B,2- | B,2 C2 D4 | E4 F4 | %15
w: qui iay fi-|an- * * *||ce, de- si- rez|vous ma vi- * *||* * e|ou mort?|
"^-natural" z2 D2 C2 C2 | B,A,B,C D2 B,2 | F2 F2 E4 | F3 E C2 _E2 | D2 B,2 C4- | C4 z2 C2 | %21
w: Vi- vray ie|tous- * * * * ioure|en souf- fran-|||ce? Mon|
 C2 A,B, CDEC | D2 C2 G2 F2 | D8- | D8 | D4 z2 G2 | G2 F2 F2 E2 | D4 D4 | z2 E2 E2 E2 | F4 E2 DC | %30
w: cueur si _ _ _ _ _|vit en es- pe-|ran-||ce, en|ac- com- plis- sant|m'en vueil,|ie ne scay|si cest _ _|
 DE F4 B,2- | B,2 C2 D4 | E4 F4 | z2 F2 F2 F2 | EFGE F2 F2 | E2 C2 D4 | G,2 E3 D CB, | C4 C4- | %38
w: _ _ _ i-|* gno- ran-|* ce,|mais ie n'y|tou- * * * * che|que _ _|_ de _ _ _|_ loeil.|
 C8 |] %39
w: _|
V:3
 z4 z2 A2 | A2 A2 F3 G | A4 D2 dc | de f3 e d2- | d2 c2 d4 | z2 f2 f2 e2 | d4 B2 d2- | d2 c3 B AG | %8
w: Nau-|ray ie ia- *|* mais re- *||* con- fort|de vous, bel-|le, à qui|_ iay _ _ _|
 F3 G ABcA | BAGF G4 | F4 z2 A2 | A2 A2 F3 G | A2 A2 D2 dc | de f3 e d2- |"^#" d2 c2 d4 | %15
w: fi- * * * * *|* * * * an-|ce, de-|si- rez vous _|_ ma vi _ _|_ _ _ _ e|_ ou mort?|
 z2 f2 f2 e2 | d2 d2 B2 d2- | d2 c3 B AG | F3 G ABcA | BAGF G4 | F4 z2 A2 | A2 A2 F2 c2 | %22
w: Vi- vray ie|tous- iours en souf-|* fran- * * *|||ce? Mon|cueur si vit en|
 B2 A2 d3 c | de f2- fedc | dcBA B4 | A4 z2 d2 | d2 d2 c2 B2 | A4 G4 | z2 c2 c2 c2 | c6 A2 | %30
w: es- pe- ran- *|||ce, en|ac- com- plis- sant|m'en vueil,|ie ne scay|si cest|
 B4 A2 dc | de f3 e d2- | d2 c2 d4 | z2 c2 c2 c2 | c4 d2 c2- | cB AG FGAB | c4 BAGF | G4 F4- | %38
w: i- gno- ran- *||* * ce,|mais ie n'y|tou- * che|que _ _ _ _ _ _ _|de _ _ _ _|_ loeil.|
 F8 |] %39
w: _|
V:4
 z2 A,2 A,2 A,2 | F,3 G, A,2 D,2- | D,C,D,E, F,2 G,2- | G,2 F,2 B,4 | A,4 D,4 | z2 D,2 F,2 C,2 | %6
w: Nau- ray ie|ia- * * *|* * * * * mais|_ re- *|con- fort|de vous, bel-|
 G,6 G,2 | F,2 F,2 C3 B, | A,G, F,3 E, C,2 | D,4 C,4 | z2 A,2 A,2 A,2 | F,3 G, A,2 D,2- | %12
w: le, à|qui iay fi- *||an- ce,|de- si- rez|vous _ _ ma|
 D,C,D,E, F,2 G,2- | G,2 F,2 B,4 | A,4 D,4 | z2 D,2 F,2 C,2 | G,6 G,2 | F,2 F,2 C3 B, | %18
w: _ _ _ _ vi- *|* * e|ou mort?|Vi- vray ie|tous- iours|en souf- fran- *|
 A,G, F,3 E, C,2 | D,4 C,4 | z2 A,2 A,2 A,2 | F,3 G, A,4 | z2 F,2 G,2 A,2 | B,3 A,/G,/ F,2 G,2- | %24
w: |* ce?|Mon cueur si|vit _ _|en es- pe-|ran- * * * *|
 G,2 F,2 G,4 | D,4 z2 G,2 | G,2 D,2 F,2 G,2 | D,4 G,4 | z2 C,2 C,2 C,2 | F,3 G, A,2 D,2- | %30
w: |ce, en|ac- com- plis- sant|m'en vueil,|ie ne scay|si _ _ cest|
 D,C, D,E, F,2 G,2- | G,2 F,2 B,4 | A,4 D,4 | z2 F,2 F,2 F,2 | C,2 E,2 D,E,F,D, | E,2 F,2 D,4 | %36
w: i- * * * * *|* gno- ran-|* ce,|mais ie n'y|tou- * * * * *|* * che|
 C,3 D, E,2 F,2 | C,4 F,4- | F,8 |] %39
w: de _ _ _|_ loeil|_|

